svgs/light/laptop-mobile.svg

<svg xmlns="http://www.w3.org/2000/svg" viewBox="0 0 640 512"><!--! Font Awesome Pro 6.6.0 by @fontawesome - https://fontawesome.com License - https://fontawesome.com/license (Commercial License) Copyright 2024 Fonticons, Inc. --><path d="M128 32l320 0c17.7 0 32 14.3 32 32l0 32 32 0 0-32c0-35.3-28.7-64-64-64L128 0C92.7 0 64 28.7 64 64l0 224-44.8 0C8.6 288 0 296.6 0 307.2C0 349.6 34.4 384 76.8 384L352 384l0-32L76.8 352c-20.3 0-37.4-13.5-42.9-32L64 320l32 0 256 0 0-32L96 288 96 64c0-17.7 14.3-32 32-32zM608 464c0 8.8-7.2 16-16 16l-160 0c-8.8 0-16-7.2-16-16l0-288c0-8.8 7.2-16 16-16l160 0c8.8 0 16 7.2 16 16l0 288zM432 512l160 0c26.5 0 48-21.5 48-48l0-288c0-26.5-21.5-48-48-48l-160 0c-26.5 0-48 21.5-48 48l0 288c0 26.5 21.5 48 48 48z"/></svg>

<svg xmlns="http://www.w3.org/2000/svg" viewBox="0 0 640 512"><!--! Font Awesome Pro 6.4.0 by @fontawesome - https://fontawesome.com License - https://fontawesome.com/license (Commercial License) Copyright 2023 Fonticons, Inc. --><path d="M128 32H448c17.7 0 32 14.3 32 32V96h32V64c0-35.3-28.7-64-64-64H128C92.7 0 64 28.7 64 64V288H19.2C8.6 288 0 296.6 0 307.2C0 349.6 34.4 384 76.8 384H352V352H76.8c-20.3 0-37.4-13.5-42.9-32H64 96 352V288H96V64c0-17.7 14.3-32 32-32zM416 176c0-8.8 7.2-16 16-16H592c8.8 0 16 7.2 16 16V464c0 8.8-7.2 16-16 16H432c-8.8 0-16-7.2-16-16V176zm-32 0V464c0 26.5 21.5 48 48 48H592c26.5 0 48-21.5 48-48V176c0-26.5-21.5-48-48-48H432c-26.5 0-48 21.5-48 48z"/></svg>
